assets/icons/save/_.svg

<?xml version="1.0" encoding="UTF-8" standalone="no"?>
<svg viewBox="0 0 24 24" height="24" width="24" version="1.1" id="svg6" sodipodi:docname="_.svg" inkscape:version="1.1 (ce6663b3b7, 2021-05-25)"
   xmlns:inkscape="http://www.inkscape.org/namespaces/inkscape"
   xmlns:sodipodi="http://sodipodi.sourceforge.net/DTD/sodipodi-0.dtd"
   xmlns="http://www.w3.org/2000/svg"
   xmlns:svg="http://www.w3.org/2000/svg">
   <defs id="defs10" />
   <sodipodi:namedview id="namedview8" pagecolor="#ffffff" bordercolor="#666666" borderopacity="1.0" inkscape:pageshadow="2" inkscape:pageopacity="0.0" inkscape:pagecheckerboard="0" showgrid="true" inkscape:snap-page="true" inkscape:zoom="28" inkscape:cx="4.1964285" inkscape:cy="7.9107142" inkscape:window-width="1920" inkscape:window-height="1016" inkscape:window-x="0" inkscape:window-y="27" inkscape:window-maximized="1" inkscape:current-layer="svg6">
      <inkscape:grid type="xygrid" id="grid1011" />
      <inkscape:grid type="xygrid" id="grid872" dotted="true" spacingx="0.5" spacingy="0.5" empspacing="10" />
   </sodipodi:namedview>
   <rect style="fill:#808080;fill-rule:evenodd;stroke-width:0.5;stroke-linecap:square" id="rect1055" width="14" height="1" x="5" y="20" />
   <path id="rect867" style="fill:#808080;fill-rule:evenodd;stroke-width:0.5;stroke-linecap:round;stroke-linejoin:round;fill-opacity:1" d="M 10 2 L 10 8 L 6.7714844 8 L 7.0332031 8.6796875 C 7.0332031 8.6796875 7.6635195 10.315901 8.5449219 12.267578 C 9.4263242 14.219255 10.540812 16.476796 11.609375 17.8125 L 12 18.300781 L 12.390625 17.8125 C 13.459188 16.476796 14.573676 14.219255 15.455078 12.267578 C 16.33648 10.315901 16.966797 8.6796875 16.966797 8.6796875 L 17.228516 8 L 14 8 L 14 2 L 10 2 z M 11 3 L 13 3 L 13 8 L 13 9 L 13.5 9 L 15.748047 9 C 15.566587 9.4617576 15.246682 10.303524 14.544922 11.857422 C 13.791873 13.524887 12.847216 15.241677 12 16.478516 C 11.152784 15.241677 10.208127 13.524887 9.4550781 11.857422 C 8.7533179 10.303524 8.4334129 9.4617576 8.2519531 9 L 10.5 9 L 11 9 L 11 8 L 11 3 z " />
</svg>

<svg height="24" width="24" xmlns="http://www.w3.org/2000/svg"><path style="fill:gray;stroke-width:.5;stroke-linecap:square" d="M5 20h14v1H5z"/><path style="fill:gray;stroke-width:.5;stroke-linecap:round;stroke-linejoin:round;fill-opacity:1" d="M10 2v6H6.771l.262.68s.63 1.636 1.512 3.588c.881 1.951 1.996 4.209 3.064 5.544l.391.489.39-.488c1.07-1.336 2.184-3.594 3.065-5.545a77.032 77.032 0 0 0 1.512-3.588l.262-.68H14V2h-4zm1 1h2v6h2.748c-.181.462-.501 1.304-1.203 2.857-.753 1.668-1.698 3.385-2.545 4.622-.847-1.237-1.792-2.954-2.545-4.622C8.753 10.304 8.433 9.462 8.252 9H11V3z"/></svg>
